X: 4
T: Mom's Waltz
C: Bruce Sagan
S: Bruce Sagan's "scanfolk" session archive (2010-3-22 session)
F: https://app.box.com/s/u6iiren0igvsukrhdducy7orq72jayq8/file/734761932806
R: waltz
Z: 2021 John Chambers <jc:trillian.mit.edu>
M: 3/4
L: 1/8
K: G
z>D G>A ||\
"G"B<d- d2 B2 | "D"A4 G>A | "G"B2- B>c B>A | "C"G<E- E>D "D"G>A |\
"G"B<d- d2 B2 | "D"A4 G>A | "Em"B2- B>A "C"G>E | "D"D2- D>D G>A |
"G"B<d- d2 B2 | "D"A4 G>A | "Em"B2 c2 d2 | "C"e4 e2 |\
"G"d<B- B A>G | "D"A2 B2- B>A | "C"G6 | "G"G2 :|
|: B2 d2 ||\
"C"e2- e>A "D"f>A | "G"g<G- G2 B2 | "Am"c2- c>B A>G | "Em"E<G- G2 B>d |\
"C"e2- e>A "D"f>A | "G"g<G- G2 B2 | "D"A4 F>E | "D7"D2- D>D G>A |
"G"B<d- d2 B2 | "D"A4 G>A | "Em"B2 c2 d2 | "C"e4 e2 |\
"G"d<B- B2 A>G | "D"A2 B2- B>A | "C"G6 | "G"G2 :|

%%sep 2 1 500

